T: Dowd's Favourite
M: 4/4
L: 1/8
K: Gdor
DGGA B2GB|A~F3 CFA,F|DGGA [D3B3]B|{c}BAGA {c}BA[DA]F |!DGGA B2GB|A~F3 CFA,F|DGGA [D3B3]d|cA[Af]c [Ae]GG2 |!
